packages/core/src/svgs/tokens/branded/POLC.svg

<svg width="24" height="24" viewBox="0 0 24 24" fill="none" xmlns="http://www.w3.org/2000/svg">
<path d="M10.7881 21.6971C15.6416 21.6971 19.5763 17.8982 19.5763 13.2121C19.5763 8.52594 15.6416 4.72705 10.7881 4.72705C5.93457 4.72705 2 8.52594 2 13.2121C2 17.8982 5.93457 21.6971 10.7881 21.6971Z" fill="#C000A3"/>
<path d="M17.7577 10.1819C20.1008 10.1819 22.0002 8.41807 22.0002 6.24234C22.0002 4.06662 20.1008 2.30286 17.7577 2.30286C15.4147 2.30286 13.5151 4.06662 13.5151 6.24234C13.5151 8.41807 15.4147 10.1819 17.7577 10.1819Z" fill="#630655"/>
<path fill-rule="evenodd" clip-rule="evenodd" d="M8.06134 10.1816H3.96003C3.72669 10.1816 3.5376 10.3622 3.5376 10.5847C3.5376 10.8071 3.72669 10.9877 3.96003 10.9877C4.24186 10.9877 4.42488 11.1253 4.42488 11.3937V14.872C4.42488 14.9921 4.40186 15.1769 4.24245 15.2345L4.20851 15.2467C3.94184 15.3417 3.81881 15.386 3.81881 15.6363C3.81881 16.186 5.0752 16.2424 5.63704 16.2424C6.27342 16.2424 7.45526 16.0745 7.45526 15.6363C7.45526 15.3756 7.33891 15.3332 7.02496 15.2345C6.8795 15.189 6.84919 14.9921 6.84919 14.872V13.8181H8.06134C8.54357 13.8181 9.00601 13.6266 9.34697 13.2855C9.68807 12.9445 9.87955 12.4821 9.87955 11.9998C9.87955 11.5176 9.68807 11.0552 9.34697 10.7142C9.00601 10.3731 8.54357 10.1816 8.06134 10.1816ZM6.84919 11.3314C6.84919 11.198 6.96252 11.0907 7.10314 11.0907C7.63224 11.0907 8.06134 11.498 8.06134 11.9998C8.06134 12.5017 7.63224 12.909 7.10314 12.909C7.07067 12.9099 7.03832 12.9044 7.00799 12.8928C6.97764 12.8812 6.94989 12.8636 6.92631 12.8413C6.90272 12.8189 6.88377 12.7922 6.87055 12.7625C6.85731 12.7328 6.85005 12.7009 6.84919 12.6683V11.3314ZM17.7465 12.9186C17.9083 14.5841 16.4167 16.066 14.4148 16.2278C12.4129 16.3903 10.6596 15.1714 10.4978 13.5054C10.3359 11.8399 11.8274 10.358 13.8293 10.1962C15.8313 10.0337 17.5846 11.2526 17.7465 12.9186ZM15.1252 12.869C15.4943 13.7738 15.3349 14.6636 14.7693 14.8556C14.204 15.0484 13.4464 14.4703 13.0773 13.5648C12.7088 12.6593 12.8681 11.7695 13.4337 11.5769C13.999 11.3852 14.7566 11.9641 15.1252 12.869Z" fill="#F0F1F6"/>
<path d="M14.9702 5.05373C14.9702 4.87312 15.1558 4.72705 15.3339 4.72705H16.546C16.7242 4.72705 16.9376 4.87312 16.9376 5.05373C16.9376 5.23374 16.7934 5.33434 16.6152 5.33434H16.546V6.77073C16.546 6.97681 16.5927 7.15741 16.7963 7.15741H16.9164C17.0302 7.12711 17.3381 7.04772 17.3418 6.79619C17.3479 6.44588 17.7581 6.51135 17.7581 6.77073C17.7581 7.15741 17.5939 7.83441 17.2533 7.75017C17.1321 7.71986 17.1031 7.64289 16.8248 7.56894H15.3279C15.3001 7.56878 15.2727 7.56317 15.2473 7.55242C15.2217 7.54167 15.1985 7.526 15.1791 7.50631C15.1596 7.48662 15.1442 7.46327 15.1337 7.43762C15.1232 7.41197 15.118 7.38452 15.1181 7.35681C15.1181 7.23924 15.2181 7.15681 15.3339 7.15681V5.33434H15.2926C15.1145 5.33434 14.9702 5.23374 14.9702 5.05373ZM20.6261 6.72468C20.4504 6.63558 20.2879 6.76105 20.2286 6.83559C20.1837 6.89135 20.1231 6.99802 19.7019 6.99802C19.1758 6.99802 18.8442 6.0586 18.8649 5.86223C18.8855 5.66587 18.9394 5.3501 19.3249 5.33313C19.7104 5.31616 19.8303 5.52526 20.0007 5.86223C20.1365 6.13194 20.3418 6.12284 20.4274 6.08405C20.5643 6.01436 20.8273 5.8186 20.7838 5.59314C20.7297 5.31191 20.6261 4.93191 20.4855 4.88524C20.3728 4.84767 20.1673 4.91494 20.0795 4.95312C19.9231 4.78584 19.5503 4.73251 19.3824 4.72705C18.4709 4.72705 17.7581 5.42707 17.7581 6.17375C17.7581 6.92105 18.4546 7.75743 19.3824 7.75743C20.1255 7.75743 20.5219 7.43864 20.6261 7.27925C20.6995 7.13135 20.8019 6.81316 20.6261 6.72468Z" fill="#F0F3FA"/>
</svg>

<svg xmlns="http://www.w3.org/2000/svg" width="24" height="24" fill="none" viewBox="0 0 24 24">
    <path fill="#C000A3" d="M10.788 21.697c4.854 0 8.788-3.799 8.788-8.485s-3.934-8.485-8.788-8.485C5.935 4.727 2 8.526 2 13.212s3.935 8.485 8.788 8.485"/>
    <path fill="#630655" d="M17.758 10.182C20.1 10.182 22 8.418 22 6.242c0-2.175-1.9-3.94-4.242-3.94s-4.243 1.765-4.243 3.94c0 2.176 1.9 3.94 4.243 3.94"/>
    <path fill="#F0F1F6" fill-rule="evenodd" d="M8.061 10.182H3.96a.413.413 0 0 0-.422.403c0 .222.189.403.422.403.282 0 .465.137.465.406v3.478c0 .12-.023.305-.183.363l-.033.012c-.267.095-.39.139-.39.39 0 .549 1.256.605 1.818.605.636 0 1.818-.168 1.818-.606 0-.26-.116-.303-.43-.401-.146-.046-.176-.243-.176-.363v-1.054h1.212a1.818 1.818 0 1 0 0-3.636m-1.212 1.15c0-.134.114-.241.254-.241.53 0 .958.407.958.909s-.429.909-.958.909a.247.247 0 0 1-.254-.24zm10.898 1.587c.161 1.665-1.33 3.147-3.332 3.309s-3.755-1.057-3.917-2.723 1.33-3.147 3.331-3.309 3.756 1.057 3.918 2.723m-2.622-.05c.37.905.21 1.795-.356 1.987-.565.192-1.323-.386-1.692-1.291-.368-.906-.209-1.795.357-1.988.565-.192 1.323.387 1.691 1.292" clip-rule="evenodd"/>
    <path fill="#F0F3FA" d="M14.97 5.054c0-.18.186-.327.364-.327h1.212c.178 0 .392.146.392.327 0 .18-.145.28-.323.28h-.069v1.437c0 .206.047.386.25.386h.12c.114-.03.422-.11.426-.36.006-.351.416-.286.416-.026 0 .386-.164 1.063-.505.98-.12-.031-.15-.108-.428-.182h-1.497a.21.21 0 0 1-.21-.212c0-.118.1-.2.216-.2V5.334h-.041c-.178 0-.323-.1-.323-.28m5.656 1.67c-.176-.088-.338.037-.397.112-.045.055-.106.162-.527.162-.526 0-.858-.94-.837-1.136.02-.196.074-.512.46-.529.385-.017.505.192.676.53.136.269.34.26.426.221.137-.07.4-.265.357-.49-.054-.282-.158-.662-.299-.709-.112-.037-.318.03-.405.068-.157-.167-.53-.22-.698-.226-.911 0-1.624.7-1.624 1.447s.697 1.583 1.624 1.583c.743 0 1.14-.318 1.244-.478.073-.148.176-.466 0-.554"/>
</svg>
